X:495
T: Guangrongbang
N: C1914
O: China, Hebei Changli
S: IV, 28]
R: Xiaodiao, Xiaokanxi]
M: 2/4
L: 1/16
K: G
d2d2B2d2 | e3ge2d2 | B2egedB2 | A8
d2E4G2 | A2dBA4 | egedc2e2 | d4d4
E3GA2A2 | d4D2F2 | E2D4^C2 | D8
G2G2E2G2 | A2A2z2BA | G2G2E2G2 | A8
d2B2d4 | e2fed2B2 | A2d2B2A2 | G4G4
A2G2A2B2 | d4d4 | B3gedB2 | A4A4
G2D2E2G2 | A3BA2G2 | E3GA2A2 | d2d2D2F2 | E2D4^C2 | D8

